!!!!SEGMENT: pl-kk--kk-i-40--004-004_lasso-rudolph-di--missa-agnus-dei.krn
!!!cenid: 16xx:1292
!!!COM: Lasso, Rudolph di
!!!COM-rismid: pe30014045
!!!CDT: ~1563-1625
!!!CNT:
!!!OPR: Missa
!!!OTL: Agnus Dei
!!!OMV: 004
!!!PDT:
!!!AGN: Sacred; Mass
!!!SMS-siglum: PL-Kk
!!!SMS-shelfmark: Kk.I.40
!!!SMS-shelfwork: 004-004 M
!!!SMS-variant:
!!!SMS-altvar:
!!!NIFC-rismid: 1001154490
!!!URL-scan: http://repozytorium.nifc.pl/skany/pl-kk-nut--i-40
!!!ONB-nifc: UWAGA: części Mszy: 1. Kyrie, 2. Et in terra, 3. Sanctus, 4. Agnus Dei. Skan 0007-0008
!!!AIN: 1 empty
!!!key:
**kern	**text
*Iempty	*
*I"Baſso Ripieno.	*
*I'B rip	*
*clefF4	*
*k[b-]	*
*g:	*
*M2/1	*
*met(c|)	*
=1-	=1-
!LO:TX:t=P:global:problem=oddech/cezura na różnej wysokości	!
!LO:TX:t=P:znaki:problem= B- nad BB-	!
!LO:N:vis=00	!
00r	.
=2-	=2-
.	.
=3-	=3-
!LO:N:vis=00	!
00r	.
=4-	=4-
.	.
=5-	=5-
2.GG/	A-
4AA/	.
4BB-/	.
4GG/	.
4BB-/	.
!LO:TX:t=P:problem=kreska pseudotaktowa	!
4C/	.
=6-	=6-
4D/	.
4BB-/	.
*2\right	*
2E-X\	-gnus
2D,\	.
4BB-/	De-
4C/	.
=7-	=7-
4D\	.
4Eny\	.
!LO:TX:t=P:problem=kreska pseudotaktowa	!
2F\	.
4F\	.
4E\	.
4D/	.
4C/	.
=8-	=8-
2BB-,/	-i
4G\	a-
4G\	-gn(us)
1D	De-
=9-	=9-
!LO:TX:t=P:problem=kreska pseudotaktowa	!
1GG	-i
2r	.
2G\	qui
=10-	=10-
4F\	tol-
4E\	.
4D\	.
4E\	.
1F	.
=11-	=11-
2C,/	-lis
!LO:TX:t=P:problem=kreska pseudotaktowa	!
2C/	qui
4GG/	tol-
4AA/	.
4BB-/	.
4C/	.
=12-	=12-
4D/	.
4BB-/	.
2E-X\	-lis
!LO:TX:t=P:problem=kreska pseudotaktowa	!
1D	.
=13-	=13-
2r	.
1G	pec-
1F\	-ca-
=14-	=14-
.	.
!LO:TX:t=P:problem=kreska pseudotaktowa	!
2Eny\	-ta
2.D/	.
4C/	.
=15-	=15-
1BB-	mun-
2AA,/	-di
!LO:TX:t=P:problem=kreska pseudotaktowa	!
2AA/	pec-
!LO:LB:g=original	!
=16-	=16-
2G\	-ca-
2F#X\	-ta
1G	mun-
=17-	=17-
!LO:TX:t=P:problem=kreska pseudotaktowa	!
1D	-di
2.A\	mi-
4A\	-ſe-
=18-	=18-
2G\	-re-
2F#X\	-re
2G\	no-
!LO:TX:t=P:problem=kreska pseudotaktowa	!
2D\	-bis
=19-	=19-
2r	.
*	*ij
4D/	mi-
!LO:TX:t=P:problem=kreska pseudotaktowa	!
4D/	-ſe-
2C/	-re-
2BBn/	-re
=20-	=20-
2C/	no-
!LO:TX:t=P:problem=kreska pseudotaktowa	!
2GG/	-bis
*	*Xij
2r	.
4G\	mi-
4G\	-ſe-
=21-	=21-
2Fny\	-re-
!LO:TX:t=P:problem=kreska pseudotaktowa	!
2E\	-re
4F\	no-
4E\	.
4D/	.
4C/	.
=22-	=22-
2BB-y/	.
4AA/	.
4GG/	.
!LO:TX:t=P:problem=kreska pseudotaktowa	!
1D	.
=23-	=23-
2GG,/	-bis
*	*ij
4G\	mi-
4G\	-ſe-
4C/	-re-
4BBn/	-re
2C/	no-
=24-	=24-
0GG;>	-bis
*	*Xij
=25||-	=25||-
*M2/1	*
*met(c|)	*
!LO:TX:t=P:problem=kreska pseudotaktowa	!
1r	.
1.G	A-
=26-	=26-
.	.
!LO:TX:t=P:problem=kreska pseudotaktowa	!
2GG/	-gnus
2.D/	a-
!LO:TX:t=P:problem=kreska pseudotaktowa	!
4C/	.
!LO:LB:g=original	!
=27-	=27-
2BB-y/	.
2BB-/	-gn(us)
1F	De-
=28-	=28-
!LO:TX:t=P:problem=kreska pseudotaktowa	!
1BB-	-i
(>2F\	qui
2E\)	.
=29-	=29-
!LO:TX:t=P:problem=kreska pseudotaktowa	!
1F	tol-
1G	-lis
=30-	=30-
!LO:TX:t=P:problem=kreska pseudotaktowa	!
1F	.
1.BB-	pec-
=31-	=31-
.	.
2BB-/	-ca-
2C/	-ta
2GG/	.
=32-	=32-
2D\	.
2E-X\	mun-
!LO:TX:t=P:problem=kreska pseudotaktowa	!
1D	-di
=33-	=33-
2.G\	mi-
4G\	-se-
2.D\	-re-
4Eny\	-re
=34-	=34-
*	*ij
2.F\	mi-
4E\	-se-
2D/	-re-
!LO:TX:t=P:problem=kreska pseudotaktowa	!
2C#X/	-re
*	*Xij
=35-	=35-
1D	no-
2A\	.
2AA/	.
=36-	=36-
!LO:TX:Bi:a:t=Agnus 3tium\nut supra	!
0D;>	-bis.
==	==
*-	*-
!!!RDF**kern: > = above
!!!RDF**kern: < = below
!!!EED: Antoni Szymański
!!!EST: 2021-07-31
!!!ENC: Katarzyna Serwa
!!!END: 2021-07-04
